src/img/redux.svg

<svg width="38" height="38" viewBox="0 0 38 38" fill="none" xmlns="http://www.w3.org/2000/svg">
<path d="M25.4137 24.7294C26.6408 24.6052 27.5716 23.5705 27.5293 22.3289C27.487 21.0873 26.4292 20.094 25.1598 20.094H25.0752C23.7635 20.1353 22.7481 21.2114 22.7904 22.4944C22.8327 23.1152 23.0866 23.6533 23.4674 24.0258C22.0288 26.7987 19.8285 28.8267 16.5282 30.5236C14.2857 31.6824 11.9585 32.0963 9.63135 31.8066C7.72731 31.5583 6.24639 30.7305 5.31552 29.3647C3.96154 27.3368 3.8346 25.1432 4.97703 22.9497C5.78095 21.377 7.05031 20.2181 7.85424 19.6387C7.68499 19.1007 7.43112 18.1901 7.30419 17.5279C1.16895 21.8736 1.80363 27.7506 3.66536 30.5236C5.06165 32.593 7.89655 33.876 11.0276 33.876C11.8739 33.876 12.7201 33.7932 13.5664 33.5863C18.9823 32.5516 23.0866 29.4061 25.4137 24.7294Z" fill="#272727"/>
<path d="M32.8606 19.5973C29.6449 15.9138 24.906 13.8858 19.4901 13.8858H18.8131C18.4323 13.1408 17.6283 12.6442 16.7398 12.6442H16.6552C15.3435 12.6856 14.328 13.7617 14.3703 15.0447C14.4126 16.2863 15.4704 17.2796 16.7398 17.2796H16.8244C17.7553 17.2382 18.5592 16.6588 18.8977 15.8724H19.6593C22.875 15.8724 25.9215 16.7829 28.6718 18.5626C30.7874 19.9284 32.3106 21.708 33.1568 23.8602C33.8761 25.5985 33.8338 27.2954 33.0722 28.7439C31.8875 30.9375 29.8988 32.1377 27.2755 32.1377C25.583 32.1377 23.9751 31.641 23.1289 31.2686C22.6635 31.6824 21.8172 32.3446 21.2249 32.7585C23.0443 33.5863 24.906 34.0415 26.6831 34.0415C30.7451 34.0415 33.7492 31.848 34.8916 29.6544C36.1187 27.254 36.034 23.1152 32.8606 19.5973Z" fill="#272727"/>
<path d="M11.3659 25.433C11.4082 26.6746 12.466 27.6679 13.7354 27.6679H13.82C15.1317 27.6265 16.1472 26.5504 16.1049 25.2674C16.0626 24.0258 15.0048 23.0325 13.7354 23.0325H13.6508C13.5662 23.0325 13.4392 23.0325 13.3546 23.0739C11.6198 20.2595 10.9005 17.1969 11.1544 13.8859C11.3236 11.4026 12.1699 9.25046 13.6508 7.4708C14.8778 5.93946 17.2473 5.19449 18.8552 5.1531C23.3402 5.07033 25.2443 10.5335 25.3712 12.727C25.9213 12.8512 26.8521 13.1409 27.4868 13.3478C26.9791 6.64305 22.7479 3.1665 18.6859 3.1665C14.8778 3.1665 11.3659 5.85669 9.96964 9.82988C8.02329 15.1275 9.29264 20.2181 11.6621 24.2327C11.4506 24.5224 11.3236 24.9777 11.3659 25.433Z" fill="#272727"/>
</svg>

<svg width="38" height="38" viewBox="0 0 38 38" fill="none" xmlns="http://www.w3.org/2000/svg"><path d="M25.414 24.73a2.335 2.335 0 002.115-2.401c-.042-1.242-1.1-2.235-2.37-2.235h-.084c-1.311.041-2.327 1.117-2.285 2.4.043.621.297 1.16.677 1.532-1.438 2.773-3.639 4.8-6.939 6.498-2.242 1.158-4.57 1.572-6.897 1.283-1.904-.249-3.385-1.076-4.315-2.442-1.354-2.028-1.481-4.222-.339-6.415.804-1.573 2.073-2.732 2.877-3.311a21.928 21.928 0 01-.55-2.111c-6.135 4.346-5.5 10.223-3.639 12.996 1.397 2.069 4.232 3.352 7.363 3.352.846 0 1.692-.083 2.538-.29 5.416-1.034 9.52-4.18 11.848-8.857z" fill="#272727"/><path d="M32.86 19.597c-3.215-3.683-7.954-5.711-13.37-5.711h-.677c-.38-.745-1.185-1.242-2.073-1.242h-.085c-1.312.042-2.327 1.118-2.285 2.4.043 1.242 1.1 2.236 2.37 2.236h.084c.931-.042 1.735-.621 2.074-1.408h.761c3.216 0 6.263.91 9.013 2.69 2.115 1.366 3.639 3.146 4.485 5.298.72 1.739.677 3.435-.085 4.884-1.185 2.194-3.173 3.394-5.797 3.394-1.692 0-3.3-.497-4.146-.87a24.93 24.93 0 01-1.904 1.49c1.82.828 3.681 1.283 5.458 1.283 4.062 0 7.066-2.193 8.209-4.387 1.227-2.4 1.142-6.539-2.031-10.057z" fill="#272727"/><path d="M11.366 25.433c.042 1.242 1.1 2.235 2.37 2.235h.084c1.312-.041 2.327-1.118 2.285-2.4-.042-1.242-1.1-2.236-2.37-2.236h-.084c-.085 0-.212 0-.296.042-1.735-2.815-2.455-5.877-2.2-9.188.169-2.483 1.015-4.636 2.496-6.415 1.227-1.532 3.596-2.277 5.204-2.318 4.485-.083 6.39 5.38 6.516 7.574.55.124 1.481.414 2.116.62-.508-6.704-4.74-10.18-8.801-10.18-3.808 0-7.32 2.69-8.716 6.663-1.947 5.297-.677 10.388 1.692 14.403-.211.29-.338.745-.296 1.2z" fill="#272727"/></svg>
